packages/assets/SVGIcons/robotSvgIcon.svg

<svg viewBox="0 0 20 20" fill="none" xmlns="http://www.w3.org/2000/svg">
    <g clip-path="url(#clip0_6251_59701)">
        <path fill-rule="evenodd" clip-rule="evenodd"
            d="M16.875 11.25C16.875 11.0842 16.8092 10.9253 16.6919 10.8081C16.5747 10.6908 16.4158 10.625 16.25 10.625H3.75C3.58424 10.625 3.42527 10.6908 3.30806 10.8081C3.19085 10.9253 3.125 11.0842 3.125 11.25V18.125C3.12484 18.3713 3.17322 18.6152 3.26739 18.8427C3.36156 19.0703 3.49967 19.277 3.67381 19.4512C3.84795 19.6253 4.05471 19.7634 4.28227 19.8576C4.50983 19.9518 4.75373 20.0002 5 20H15C15.4975 20 15.975 19.8019 16.325 19.45C16.6769 19.0994 16.875 18.6219 16.875 18.125V11.25ZM16.875 1.875C16.875 1.3775 16.6775 0.900625 16.3256 0.549375C16.1516 0.375142 15.945 0.236935 15.7175 0.142666C15.4901 0.048397 15.2462 -8.34789e-05 15 1.07902e-07H5C4.5025 1.07902e-07 4.02563 0.1975 3.67438 0.549375C3.50014 0.723363 3.36194 0.930006 3.26767 1.15747C3.1734 1.38494 3.12492 1.62877 3.125 1.875V7.5C3.125 7.9975 3.3225 8.47437 3.67438 8.82563C3.84836 8.99986 4.05501 9.13806 4.28247 9.23233C4.50994 9.3266 4.75377 9.37508 5 9.375H15C15.4975 9.375 15.9744 9.1775 16.3256 8.82563C16.4999 8.65164 16.6381 8.44499 16.7323 8.21753C16.8266 7.99006 16.8751 7.74623 16.875 7.5V1.875ZM7.5 2.5C7.0111 2.51262 6.54647 2.71571 6.20514 3.06596C5.86381 3.41622 5.67279 3.88594 5.67279 4.375C5.67279 4.86406 5.86381 5.33378 6.20514 5.68404C6.54647 6.03429 7.0111 6.23738 7.5 6.25C7.9889 6.23738 8.45353 6.03429 8.79486 5.68404C9.13619 5.33378 9.32721 4.86406 9.32721 4.375C9.32721 3.88594 9.13619 3.41622 8.79486 3.06596C8.45353 2.71571 7.9889 2.51262 7.5 2.5ZM12.5 2.5C12.0111 2.51262 11.5465 2.71571 11.2051 3.06596C10.8638 3.41622 10.6728 3.88594 10.6728 4.375C10.6728 4.86406 10.8638 5.33378 11.2051 5.68404C11.5465 6.03429 12.0111 6.23738 12.5 6.25C12.9889 6.23738 13.4535 6.03429 13.7949 5.68404C14.1362 5.33378 14.3272 4.86406 14.3272 4.375C14.3272 3.88594 14.1362 3.41622 13.7949 3.06596C13.4535 2.71571 12.9889 2.51262 12.5 2.5ZM18.0181 10.625H18.125C18.6225 10.625 19.0994 10.8225 19.4506 11.1744C19.8025 11.5256 20 12.0025 20 12.5V16.25C20 16.7475 19.8025 17.2244 19.4506 17.5756C19.2766 17.7499 19.07 17.8881 18.8425 17.9823C18.6151 18.0766 18.3712 18.1251 18.125 18.125V11.25C18.125 11.0306 18.0875 10.8206 18.0181 10.625ZM1.98188 10.625H1.875C1.3775 10.625 0.900625 10.8225 0.549375 11.1744C0.375142 11.3484 0.236935 11.555 0.142666 11.7825C0.048397 12.0099 -8.34789e-05 12.2538 1.07902e-07 12.5V16.25C1.07902e-07 16.7475 0.1975 17.2244 0.549375 17.5756C0.723363 17.7499 0.930006 17.8881 1.15747 17.9823C1.38494 18.0766 1.62877 18.1251 1.875 18.125V11.25C1.875 11.0306 1.9125 10.8206 1.98188 10.625Z"
            fill="currentColor" />
    </g>
    <defs>
        <clipPath id="clip0_6251_59701">
            <rect width="20" height="20" fill="currentColor" />
        </clipPath>
    </defs>
</svg>

<svg viewBox="0 0 20 20" fill="none" xmlns="http://www.w3.org/2000/svg">
  <g clip-path="url(#clip0)">
    <path
      fill="currentColor"
      fill-rule="evenodd"
      clip-rule="evenodd"
      d="M16.875 11.25a.625.625 0 0 0-.625-.625H3.75a.625.625 0 0 0-.625.625v6.875c0 .4975.1981.975.55 1.325.3519.3506.8294.549 1.325.549h10c.4975 0 .975-.1981 1.325-.55.3519-.3506.55-.8281.55-1.325V11.25Zm0-9.375A1.25 1.25 0 0 0 15 0H5A1.25 1.25 0 0 0 3.125 1.875V7.5c0 .4975.1975.9744.5494 1.3256.174.174.3807.3122.6082.4065.2276.0942.4715.1426.7174.1426h10c.4975 0 .9744-.1975 1.3256-.5494.174-.174.3122-.3807.4065-.6082.0942-.2275.1426-.4714.1426-.7175V1.875ZM7.5 2.5a1.875 1.875 0 1 0 0 3.75 1.875 1.875 0 0 0 0-3.75Zm5 0a1.875 1.875 0 1 0 0 3.75 1.875 1.875 0 0 0 0-3.75ZM18.018 10.625H18.125c.4975 0 .9744.1975 1.3256.5494.3519.3519.5494.8288.5494 1.3256v3.75c0 .4975-.1975.9744-.5494 1.3256a1.25 1.25 0 0 1-1.3256.5494V11.25c0-.2194-.0375-.4294-.1069-.625ZM1.982 10.625H1.875c-.4975 0-.9744.1975-1.3256.5494A1.25 1.25 0 0 0 0 12.5v3.75c0 .4975.1975.9744.5494 1.3256.174.174.3807.3122.6082.4065.2275.0942.4714.1426.7175.1426V11.25c0-.2194.0375-.4294.1069-.625Z"
    />
  </g>
  <defs>
    <clipPath id="clip0">
      <rect width="20" height="20" fill="none"/>
    </clipPath>
  </defs>
</svg>
